; generated by Slic3r 1.2.9 on 2017-01-06 at 17:42:56

; external perimeters extrusion width = 0.35mm
; perimeters extrusion width = 0.39mm
; infill extrusion width = 0.39mm
; solid infill extrusion width = 0.39mm
; top infill extrusion width = 0.39mm

M107
M190 S60 ; set bed temperature
M104 S200 ; set temperature
G28 ; home all axes
G1 Z5 F5000 ; lift nozzle

M109 S200 ; wait for temperature to be reached
G21 ; set units to millimeters
G90 ; use absolute coordinates
M82 ; use absolute distances for extrusion
G92 E0
G1 Z0.350 F7800.000
G1 E-2.00000 F2400.00000
G92 E0
G1 X75.272 Y37.741 F7800.000
G1 E2.00000 F2400.00000
G1 X76.415 Y35.753 E2.20854 F1800.000
G1 X78.168 Y34.274 E2.41708
G1 X80.320 Y33.481 E2.62563
G1 X81.500 Y33.375 E2.73334
G1 X87.500 Y33.375 E3.27891
G1 X89.759 Y33.772 E3.48746
G1 X90.908 Y34.319 E3.60323 F1800.000
G1 X113.408 Y47.819 E5.98915
G1 X115.141 Y49.322 E6.19770
G1 X115.889 Y50.466 E6.32202
G1 X124.389 Y66.966 E8.00973
G1 X125.125 Y70.000 E8.29360
G1 X125.125 Y160.000 E16.47726
G1 X124.728 Y162.259 E16.68580
G1 X123.585 Y164.247 E16.89434
G1 X121.832 Y165.726 E17.10289
G1 X119.680 Y166.519 E17.31143
G1 X118.500 Y166.625 E17.41914
G1 X104.500 Y166.625 E18.69215
G1 X102.241 Y166.228 E18.90069
G1 X100.253 Y165.085 E19.10924
G1 X98.774 Y163.332 E19.31778
G1 X98.133 Y161.831 E19.46621
G1 X75.133 Y81.831 E27.03524
G1 X74.875 Y80.000 E27.20334
G1 X74.875 Y40.000 E30.84052
G1 X75.263 Y37.793 E31.04429
G1 E29.04429 F2400.00000
G92 E0
G1 X116.609 Y74.655 F7800.000
G1 E2.00000 F2400.00000
G1 X113.845 Y82.109 E2.72287 F1800.000
G1 X106.391 Y79.345 E3.44573
G1 X109.155 Y71.891 E4.16860
G1 X116.560 Y74.637 E4.88669
G1 X115.806 Y75.024 F7800.000
G1 X113.476 Y81.306 E5.49591 F1800.000
G1 X107.194 Y78.976 E6.10514
G1 X109.524 Y72.694 E6.71436
G1 X115.756 Y75.005 E7.31881
G1 X116.134 Y75.145 F7800.000
G1 X108.597 Y71.600 F7800.000
G1 X106.408 Y77.501 E7.89110 F1800.000
G1 X106.100 Y77.446 E7.91962
G1 X106.100 Y71.600 E8.45118
G1 X108.544 Y71.600 E8.67343
G1 X115.876 Y72.624 F7800.000
G1 X117.057 Y74.794 F7800.000
G1 X115.621 Y82.794 F7800.000
G1 X113.860 Y82.141 F7800.000
G1 X114.214 Y82.912 F7800.000
G1 X116.592 Y76.499 E9.29535 F1800.000
G1 X116.900 Y76.554 E9.32387
G1 X116.900 Y158.400 E16.76607
G1 X106.100 Y158.400 E17.74815
G1 X106.100 Y79.903 E24.88583
G1 X114.164 Y82.894 E25.66793
G1 X116.900 Y74.097 F7800.000
G1 X110.999 Y71.908 E26.24022 F1800.000
G1 X111.054 Y71.600 E26.26874
G1 X116.900 Y71.600 E26.80030
G1 X116.900 Y74.044 E27.02255
G1 X117.525 Y70.975 F7800.000
G1 X117.525 Y159.025 E35.02892 F1800.000
G1 X105.475 Y159.025 E36.12465
G1 X105.475 Y70.975 E44.13101
G1 X117.473 Y70.975 E45.22196
G1 X118.150 Y70.350 F7800.000
G1 X118.150 Y159.650 E53.34197 F1800.000
G1 X104.850 Y159.650 E54.55134
G1 X104.850 Y70.350 E62.67135
G1 X118.097 Y70.350 E63.87594
G1 X117.975 Y70.653 F7800.000
G1 X116.522 Y72.283 F7800.000
G1 X116.217 Y71.978 E63.92631 F1800.000
G1 X115.082 Y71.978 E64.05877
G1 X116.522 Y73.418 E64.29647
G1 X114.840 Y72.871 F7800.000
G1 X114.524 Y72.555 E64.34869 F1800.000
G1 X114.202 Y72.324 F7800.000
G1 X112.872 Y72.085 E64.60927 F1800.000
G1 X112.004 Y71.930 E64.68940 F1800.000
G1 X110.719 Y71.699 F7800.000
G1 X109.389 Y71.460 E64.94999 F1800.000
G1 X107.981 Y72.279 F7800.000
G1 X107.681 Y71.978 E64.99075 F1800.000
G1 X106.749 Y71.978 E65.08007
G1 X107.729 Y72.959 E65.21298
G1 X107.477 Y73.638 E65.28248
G1 X106.478 Y72.640 E65.41790
G1 X106.478 Y73.571 E65.50721
G1 X106.788 Y73.881 E65.54922
G1 X106.824 Y74.298 F7800.000
G1 X106.585 Y75.628 E65.80981 F1800.000
G1 X106.585 Y75.628 F7800.000
G1 X106.430 Y76.496 E65.88994 F1800.000
G1 X106.199 Y77.781 F7800.000
G1 X105.960 Y79.111 E66.15053 F1800.000
G1 X106.137 Y79.957 F7800.000
G1 X111.920 Y87.373 F7800.000
G1 X115.621 Y82.794 F7800.000
G1 X116.176 Y79.702 F7800.000
G1 X116.415 Y78.372 E66.41112 F1800.000
G1 X116.415 Y78.372 F7800.000
G1 X116.570 Y77.504 E66.49124 F1800.000
G1 X116.801 Y76.219 F7800.000
G1 X117.040 Y74.889 E66.75183 F1800.000
G1 X116.522 Y80.429 F7800.000
G1 X116.212 Y80.119 E66.79201 F1800.000
G1 X115.534 Y80.332 E66.85718
G1 X116.522 Y81.320 E66.98528
G1 X116.522 Y82.211 E67.06699
G1 X115.293 Y80.982 E67.22635
G1 X115.052 Y81.632 E67.28993
G1 X116.522 Y83.102 E67.48054
G1 X116.522 Y83.993 E67.56225
G1 X114.811 Y82.282 E67.78412
G1 X114.570 Y82.932 E67.84769
G1 X116.522 Y84.884 E68.10082
G1 X116.522 Y85.776 E68.18253
G1 X114.064 Y83.318 E68.50117
G1 X112.648 Y82.793 F7800.000
G1 X116.522 Y86.667 E69.00345 F1800.000
G1 X116.522 Y87.558 E69.08516
G1 X111.232 Y82.268 E69.77110
G1 X109.816 Y81.743 F7800.000
G1 X116.522 Y88.449 E70.64068 F1800.000
G1 X116.522 Y89.340 E70.72239
G1 X108.399 Y81.218 E71.77561
G1 X106.983 Y80.693 F7800.000
G1 X116.522 Y90.231 E73.01249 F1800.000
G1 X116.522 Y91.122 E73.09420
G1 X106.478 Y81.079 E74.39653
G1 X106.478 Y81.970 E74.47824
G1 X116.522 Y92.014 E75.78057
G1 X116.522 Y92.905 E75.86228
G1 X106.478 Y82.861 E77.16461
G1 X106.478 Y83.752 E77.24632
G1 X116.522 Y93.796 E78.54865
G1 X116.522 Y94.687 E78.63036
G1 X106.478 Y84.644 E79.93269
G1 X106.478 Y85.535 E80.01440
G1 X116.522 Y95.578 E81.31673
G1 X116.522 Y96.469 E81.39844
G1 X106.478 Y86.426 E82.70077
G1 X106.478 Y87.317 E82.78248
G1 X116.522 Y97.360 E84.08480
G1 X116.522 Y98.251 E84.16651
G1 X106.478 Y88.208 E85.46884
G1 X106.478 Y89.099 E85.55055
G1 X116.522 Y99.143 E86.85288
G1 X116.522 Y100.034 E86.93459
G1 X106.478 Y89.990 E88.23692
G1 X106.478 Y90.882 E88.31863
G1 X116.522 Y100.925 E89.62096
G1 X116.522 Y101.816 E89.70267
G1 X106.478 Y91.773 E91.00500
G1 X106.478 Y92.664 E91.08671
G1 X116.522 Y102.707 E92.38904
G1 X116.522 Y103.598 E92.47075
G1 X106.478 Y93.555 E93.77308
G1 X106.478 Y94.446 E93.85479
G1 X116.522 Y104.489 E95.15712
G1 X116.522 Y105.381 E95.23883
G1 X106.478 Y95.337 E96.54116
G1 X106.478 Y96.228 E96.62287
G1 X116.522 Y106.272 E97.92520
G1 X116.522 Y107.163 E98.00691
G1 X106.478 Y97.119 E99.30924
G1 X106.478 Y98.011 E99.39095
G1 X116.522 Y108.054 E100.69328
G1 X116.522 Y108.945 E100.77498
G1 X106.478 Y98.902 E102.07731
G1 X106.478 Y99.793 E102.15902
G1 X116.522 Y109.836 E103.46135
G1 X116.522 Y110.727 E103.54306
G1 X106.478 Y100.684 E104.84539
G1 X106.478 Y101.575 E104.92710
G1 X116.522 Y111.618 E106.22943
G1 X116.522 Y112.510 E106.31114
G1 X106.478 Y102.466 E107.61347
G1 X106.478 Y103.357 E107.69518
G1 X116.522 Y113.401 E108.99751
G1 X116.522 Y114.292 E109.07922
G1 X106.478 Y104.249 E110.38155
G1 X106.478 Y105.140 E110.46326
G1 X116.522 Y115.183 E111.76559
G1 X116.522 Y116.074 E111.84730
G1 X106.478 Y106.031 E113.14963
G1 X106.478 Y106.922 E113.23134
G1 X116.522 Y116.965 E114.53367
G1 X116.522 Y117.856 E114.61538
G1 X106.478 Y107.813 E115.91771
G1 X106.478 Y108.704 E115.99942
G1 X116.522 Y118.748 E117.30175
G1 X116.522 Y119.639 E117.38346
G1 X106.478 Y109.595 E118.68579
G1 X106.478 Y110.486 E118.76749
G1 X116.522 Y120.530 E120.06982
G1 X116.522 Y121.421 E120.15153
G1 X106.478 Y111.378 E121.45386
G1 X106.478 Y112.269 E121.53557
G1 X116.522 Y122.312 E122.83790
G1 X116.522 Y123.203 E122.91961
G1 X106.478 Y113.160 E124.22194
G1 X106.478 Y114.051 E124.30365
G1 X116.522 Y124.094 E125.60598
G1 X116.522 Y124.985 E125.68769
G1 X106.478 Y114.942 E126.99002
G1 X106.478 Y115.833 E127.07173
G1 X116.522 Y125.877 E128.37406
G1 X116.522 Y126.768 E128.45577
G1 X106.478 Y116.724 E129.75810
G1 X106.478 Y117.616 E129.83981
G1 X116.522 Y127.659 E131.14214
G1 X116.522 Y128.550 E131.22385
G1 X106.478 Y118.507 E132.52618
G1 X106.478 Y119.398 E132.60789
G1 X116.522 Y129.441 E133.91022
G1 X116.522 Y130.332 E133.99193
G1 X106.478 Y120.289 E135.29426
G1 X106.478 Y121.180 E135.37597
G1 X116.522 Y131.223 E136.67830
G1 X116.522 Y132.115 E136.76001
G1 X106.478 Y122.071 E138.06234
G1 X106.478 Y122.962 E138.14405
G1 X116.522 Y133.006 E139.44637
G1 X116.522 Y133.897 E139.52808
G1 X106.478 Y123.853 E140.83041
G1 X106.478 Y124.745 E140.91212
G1 X116.522 Y134.788 E142.21445
G1 X116.522 Y135.679 E142.29616
G1 X106.478 Y125.636 E143.59849
G1 X106.478 Y126.527 E143.68020
G1 X116.522 Y136.570 E144.98253
G1 X116.522 Y137.461 E145.06424
G1 X106.478 Y127.418 E146.36657
G1 X106.478 Y128.309 E146.44828
G1 X116.522 Y138.352 E147.75061
G1 X116.522 Y139.244 E147.83232
G1 X106.478 Y129.200 E149.13465
G1 X106.478 Y130.091 E149.21636
G1 X116.522 Y140.135 E150.51869
G1 X116.522 Y141.026 E150.60040
G1 X106.478 Y130.983 E151.90273
G1 X106.478 Y131.874 E151.98444
G1 X116.522 Y141.917 E153.28677
G1 X116.522 Y142.808 E153.36848
G1 X106.478 Y132.765 E154.67081
G1 X106.478 Y133.656 E154.75252
G1 X116.522 Y143.699 E156.05485
G1 X116.522 Y144.590 E156.13656
G1 X106.478 Y134.547 E157.43889
G1 X106.478 Y135.438 E157.52060
G1 X116.522 Y145.482 E158.82292
G1 X116.522 Y146.373 E158.90463
G1 X106.478 Y136.329 E160.20696
G1 X106.478 Y137.221 E160.28867
G1 X116.522 Y147.264 E161.59100
G1 X116.522 Y148.155 E161.67271
G1 X106.478 Y138.112 E162.97504
G1 X106.478 Y139.003 E163.05675
G1 X116.522 Y149.046 E164.35908
G1 X116.522 Y149.937 E164.44079
G1 X106.478 Y139.894 E165.74312
G1 X106.478 Y140.785 E165.82483
G1 X116.522 Y150.828 E167.12716
G1 X116.522 Y151.719 E167.20887
G1 X106.478 Y141.676 E168.51120
G1 X106.478 Y142.567 E168.59291
G1 X116.522 Y152.611 E169.89524
G1 X116.522 Y153.502 E169.97695
G1 X106.478 Y143.458 E171.27928
G1 X106.478 Y144.350 E171.36099
G1 X116.522 Y154.393 E172.66332
G1 X116.522 Y155.284 E172.74503
G1 X106.478 Y145.241 E174.04736
G1 X106.478 Y146.132 E174.12907
G1 X116.522 Y156.175 E175.43140
G1 X116.522 Y157.066 E175.51311
G1 X106.478 Y147.023 E176.81544
G1 X106.478 Y147.914 E176.89715
G1 X116.522 Y157.957 E178.19948
G1 X115.695 Y158.022 E178.27552
G1 X106.478 Y148.805 E179.47063
G1 X106.478 Y149.696 E179.55234
G1 X114.804 Y158.022 E180.63189
G1 X113.912 Y158.022 E180.71360
G1 X106.478 Y150.588 E181.67759
G1 X106.478 Y151.479 E181.75930
G1 X113.021 Y158.022 E182.60774
G1 X112.130 Y158.022 E182.68945
G1 X106.478 Y152.370 E183.42234
G1 X106.478 Y153.261 E183.50405
G1 X111.239 Y158.022 E184.12138
G1 X110.348 Y158.022 E184.20309
G1 X106.478 Y154.152 E184.70487
G1 X106.478 Y155.043 E184.78658
G1 X109.457 Y158.022 E185.17280
G1 X108.566 Y158.022 E185.25451
G1 X106.478 Y155.934 E185.52518
G1 X106.478 Y156.825 E185.60689
G1 X107.675 Y158.022 E185.76200
G1 X106.783 Y158.022 E185.84371
G1 X106.478 Y157.717 E185.88327
G1 E183.88327 F2400.00000
G92 E0
G1 X104.500 Y160.000 F7800.000
G1 X92.000 Y149.500 F7800.000
G1 X87.500 Y88.000 F7800.000
G1 X87.500 Y80.000 F7800.000
G1 X85.900 Y78.400 F7800.000
G1 E2.00000 F2400.00000
G1 X83.100 Y78.400 E2.25464 F1800.000
G1 X83.100 Y41.600 E5.60089
G1 X85.900 Y41.600 E5.85554
G1 X85.900 Y78.348 E9.19701
G1 X86.525 Y79.025 F7800.000
G1 X82.475 Y79.025 E9.56530 F1800.000
G1 X82.475 Y40.975 E13.02519
G1 X86.525 Y40.975 E13.39347
G1 X86.525 Y78.973 E16.84859
G1 X87.150 Y79.650 F7800.000
G1 X81.850 Y79.650 E17.33051 F1800.000
G1 X81.850 Y40.350 E20.90405
G1 X87.150 Y40.350 E21.38597
G1 X87.150 Y79.597 E24.95473
G1 X86.847 Y79.475 F7800.000
G1 X83.478 Y77.717 F7800.000
G1 X83.783 Y78.022 E24.99435 F1800.000
G1 X84.676 Y78.022 E25.07627
G1 X83.478 Y76.824 E25.23174
G1 X83.478 Y75.932 E25.31366
G1 X85.522 Y77.975 E25.57896
G1 X85.522 Y77.083 E25.66089
G1 X83.478 Y75.040 E25.92619
G1 X83.478 Y74.147 E26.00811
G1 X85.522 Y76.191 E26.27341
G1 X85.522 Y75.298 E26.35534
G1 X83.478 Y73.255 E26.62064
G1 X83.478 Y72.363 E26.70256
G1 X85.522 Y74.406 E26.96786
G1 X85.522 Y73.514 E27.04978
G1 X83.478 Y71.470 E27.31509
G1 X83.478 Y70.578 E27.39701
G1 X85.522 Y72.621 E27.66231
G1 X85.522 Y71.729 E27.74423
G1 X83.478 Y69.686 E28.00954
G1 X83.478 Y68.794 E28.09146
G1 X85.522 Y70.837 E28.35676
G1 X85.522 Y69.945 E28.43868
G1 X83.478 Y67.901 E28.70398
G1 X83.478 Y67.009 E28.78591
G1 X85.522 Y69.052 E29.05121
G1 X85.522 Y68.160 E29.13313
G1 X83.478 Y66.117 E29.39843
G1 X83.478 Y65.224 E29.48036
G1 X85.522 Y67.268 E29.74566
G1 X85.522 Y66.375 E29.82758
G1 X83.478 Y64.332 E30.09288
G1 X83.478 Y63.440 E30.17481
G1 X85.522 Y65.483 E30.44011
G1 X85.522 Y64.591 E30.52203
G1 X83.478 Y62.548 E30.78733
G1 X83.478 Y61.655 E30.86925
G1 X85.522 Y63.699 E31.13456
G1 X85.522 Y62.806 E31.21648
G1 X83.478 Y60.763 E31.48178
G1 X83.478 Y59.871 E31.56370
G1 X85.522 Y61.914 E31.82901
G1 X85.522 Y61.022 E31.91093
G1 X83.478 Y58.978 E32.17623
G1 X83.478 Y58.086 E32.25815
G1 X85.522 Y60.129 E32.52346
G1 X85.522 Y59.237 E32.60538
G1 X83.478 Y57.194 E32.87068
G1 X83.478 Y56.301 E32.95260
G1 X85.522 Y58.345 E33.21790
G1 X85.522 Y57.452 E33.29983
G1 X83.478 Y55.409 E33.56513
G1 X83.478 Y54.517 E33.64705
G1 X85.522 Y56.560 E33.91235
G1 X85.522 Y55.668 E33.99428
G1 X83.478 Y53.625 E34.25958
G1 X83.478 Y52.732 E34.34150
G1 X85.522 Y54.776 E34.60680
G1 X85.522 Y53.883 E34.68872
G1 X83.478 Y51.840 E34.95403
G1 X83.478 Y50.948 E35.03595
G1 X85.522 Y52.991 E35.30125
G1 X85.522 Y52.099 E35.38317
G1 X83.478 Y50.055 E35.64848
G1 X83.478 Y49.163 E35.73040
G1 X85.522 Y51.206 E35.99570
G1 X85.522 Y50.314 E36.07762
G1 X83.478 Y48.271 E36.34293
G1 X83.478 Y47.379 E36.42485
G1 X85.522 Y49.422 E36.69015
G1 X85.522 Y48.530 E36.77207
G1 X83.478 Y46.486 E37.03737
G1 X83.478 Y45.594 E37.11930
G1 X85.522 Y47.637 E37.38460
G1 X85.522 Y46.745 E37.46652
G1 X83.478 Y44.702 E37.73182
G1 X83.478 Y43.809 E37.81375
G1 X85.522 Y45.853 E38.07905
G1 X85.522 Y44.960 E38.16097
G1 X83.478 Y42.917 E38.42627
G1 X83.478 Y42.025 E38.50820
G1 X85.522 Y44.068 E38.77350
G1 X85.522 Y43.176 E38.85542
G1 X84.324 Y41.978 E39.01089
G1 X85.217 Y41.978 E39.09281
G1 X85.522 Y42.283 E39.13243
G1 E37.13243 F2400.00000
G92 E0
G1 X87.500 Y40.000 F7800.000
G1 X95.280 Y45.780 F7800.000
G1 X92.364 Y56.499 F7800.000
G1 X92.645 Y58.269 F7800.000
G1 X97.705 Y57.193 F7800.000
G1 X98.707 Y64.900 F7800.000
G1 E2.00000 F2400.00000
G1 X99.278 Y63.141 E2.16817 F1800.000
G1 X99.609 Y60.000 E2.45538
G1 X99.278 Y56.859 E2.74258
G1 X98.707 Y55.100 E2.91076
G1 X108.400 Y55.100 E3.79216
G1 X108.400 Y64.900 E4.68332
G1 X98.759 Y64.900 E5.55995
G1 X97.847 Y65.525 F7800.000
G1 X98.664 Y63.011 E5.80036 F1800.000
G1 X98.980 Y60.000 E6.07562
G1 X98.664 Y56.989 E6.35088
G1 X97.847 Y54.475 E6.59129
G1 X109.025 Y54.475 E7.60772
G1 X109.025 Y65.525 E8.61251
G1 X97.899 Y65.525 E9.62417
G1 X96.857 Y66.150 F7800.000
G1 X97.154 Y65.634 E9.67834 F1800.000
G1 X98.049 Y62.880 E9.94166
G1 X98.352 Y60.000 E10.20498
G1 X98.049 Y57.120 E10.46830
G1 X97.154 Y54.366 E10.73161
G1 X96.857 Y53.850 E10.78578
G1 X109.650 Y53.850 E11.94909
G1 X109.650 Y66.150 E13.06752
G1 X96.909 Y66.150 E14.22605
G1 X97.125 Y65.925 F7800.000
G1 X99.591 Y64.522 F7800.000
G1 X99.290 Y64.221 E14.26563 F1800.000
G1 X99.511 Y63.539 E14.33231
G1 X100.494 Y64.522 E14.46157
G1 X101.398 Y64.522 E14.54559
G1 X99.681 Y62.805 E14.77131
G1 X99.767 Y61.987 E14.84776
G1 X102.301 Y64.522 E15.18100
G1 X103.205 Y64.522 E15.26502
G1 X99.853 Y61.170 E15.70578
G1 X99.939 Y60.352 E15.78223
G1 X104.109 Y64.522 E16.33051
G1 X105.012 Y64.522 E16.41453
G1 X99.947 Y59.456 E17.08063
G1 X99.841 Y58.446 E17.17503
G1 X105.916 Y64.522 E17.97391
G1 X106.820 Y64.522 E18.05793
G1 X99.734 Y57.436 E18.98958
G1 X99.566 Y56.364 E19.09053
G1 X107.723 Y64.522 E20.16321
G1 X108.022 Y63.916 E20.22596
G1 X99.584 Y55.478 E21.33549
G1 X100.487 Y55.478 E21.41951
G1 X108.022 Y63.013 E22.41021
G1 X108.022 Y62.109 E22.49423
G1 X101.391 Y55.478 E23.36611
G1 X102.295 Y55.478 E23.45013
G1 X108.022 Y61.205 E24.20319
G1 X108.022 Y60.302 E24.28721
G1 X103.198 Y55.478 E24.92145
G1 X104.102 Y55.478 E25.00547
G1 X108.022 Y59.398 E25.52088
G1 X108.022 Y58.494 E25.60490
G1 X105.006 Y55.478 E26.00149
G1 X105.909 Y55.478 E26.08551
G1 X108.022 Y57.591 E26.36328
G1 X108.022 Y56.687 E26.44730
G1 X106.813 Y55.478 E26.60624
G1 X107.717 Y55.478 E26.69026
G1 X108.022 Y55.783 E26.73038
G1 Z0.650 F7800.000
G1 E24.73038 F2400.00000
G92 E0
G1 X109.259 Y72.117 F7800.000
G1 E2.00000 F2400.00000
G1 X116.383 Y74.759 E2.30391 F900.000
G1 X113.741 Y81.883 E2.60781
G1 X106.617 Y79.241 E2.91172
G1 X109.241 Y72.167 E3.21353
G1 X109.448 Y72.530 F7800.000
G1 X115.970 Y74.948 E3.49178 F900.000
G1 X113.552 Y81.470 E3.77003
G1 X107.030 Y79.052 E4.04828
