; generated by Slic3r 1.2.9 on 2017-01-02 at 13:27:38

; external perimeters extrusion width = 0.35mm
; perimeters extrusion width = 0.44mm
; infill extrusion width = 0.44mm
; solid infill extrusion width = 0.44mm
; top infill extrusion width = 0.44mm

M107
M190 S65 ; set bed temperature
M104 S205 ; set temperature
G28 ; home all axes
G1 Z5 F5000 ; lift nozzle

M109 S205 ; wait for temperature to be reached
G21 ; set units to millimeters
G90 ; use absolute coordinates
M82 ; use absolute distances for extrusion
G92 E0
G1 Z0.350 F7800.000
G1 E-2.00000 F2400.00000
G92 E0
G1 X44.415 Y25.544 F7800.000
G1 E2.00000 F2400.00000
G1 X46.168 Y24.064 E2.20854 F1800.000
G1 X49.223 Y23.171 E2.49795
G1 X83.589 Y21.740 E5.62553
G1 X126.803 Y21.751 E9.55493
G1 X150.891 Y23.177 E11.74916 F1800.000
G1 X153.123 Y23.707 E11.95770
G1 X155.040 Y24.966 E12.16624
G1 X156.413 Y26.803 E12.37479
G1 X157.125 Y29.790 E12.65406
G1 X157.125 Y53.790 E14.83637
G1 X156.444 Y56.716 E15.10949
G1 X98.444 Y174.561 E27.05261
G1 X97.090 Y176.412 E27.26115
G1 X95.187 Y177.691 E27.46969
G1 X92.500 Y178.260 E27.71940
G1 X75.000 Y178.260 E29.31067
G1 X72.741 Y177.863 E29.51921
G1 X70.753 Y176.720 E29.72776
G1 X69.274 Y174.967 E29.93630
G1 X68.525 Y173.037 E30.12460
G1 X43.025 Y55.192 E41.08820
G1 X42.875 Y53.790 E41.21632
G1 X42.875 Y29.790 E43.39863
G1 X43.272 Y27.532 E43.60718
G1 X44.389 Y25.589 E43.81095
G1 E41.81095 F2400.00000
G92 E0
G1 X90.900 Y73.390 F7800.000
G1 E2.00000 F2400.00000
G1 X90.900 Y169.172 E10.70940 F1800.000
G1 X89.655 Y168.618 E10.83335
G1 X85.747 Y167.787 E11.19660
G1 X81.753 Y167.787 E11.55985
G1 X77.845 Y168.618 E11.92310
G1 X76.600 Y169.172 E12.04705
G1 X76.600 Y73.390 E20.75645
G1 X90.848 Y73.390 E22.05201
G1 X91.525 Y72.765 F7800.000
G1 X91.525 Y170.134 E30.90573 F1800.000
G1 X89.461 Y169.215 E31.11120
G1 X85.682 Y168.412 E31.46251
G1 X81.818 Y168.412 E31.81381
G1 X78.039 Y169.215 E32.16512
G1 X75.975 Y170.134 E32.37060
G1 X75.975 Y72.765 E41.22431
G1 X91.473 Y72.765 E42.63351
G1 X92.150 Y72.141 F7800.000
G1 X92.150 Y171.097 E51.63154 F1800.000
G1 X89.267 Y169.813 E51.91854
G1 X85.616 Y169.037 E52.25791
G1 X81.884 Y169.037 E52.59726
G1 X78.233 Y169.813 E52.93663
G1 X75.350 Y171.097 E53.22363
G1 X75.350 Y72.141 E62.22166
G1 X92.097 Y72.141 E63.74450
G1 X91.975 Y72.444 F7800.000
G1 X90.522 Y74.074 F7800.000
G1 X90.217 Y73.769 E63.78401 F1800.000
G1 X89.327 Y73.769 E63.86548
G1 X90.522 Y74.964 E64.02021
G1 X90.522 Y75.854 E64.10168
G1 X88.437 Y73.769 E64.37163
G1 X87.547 Y73.769 E64.45311
G1 X90.522 Y76.744 E64.83827
G1 X90.522 Y77.633 E64.91975
G1 X86.657 Y73.769 E65.42014
G1 X85.767 Y73.769 E65.50161
G1 X90.522 Y78.523 E66.11722
G1 X90.522 Y79.413 E66.19869
G1 X84.877 Y73.769 E66.92952
G1 X83.988 Y73.769 E67.01100
G1 X90.522 Y80.303 E67.85705
G1 X90.522 Y81.193 E67.93852
G1 X83.098 Y73.769 E68.89979
G1 X82.208 Y73.769 E68.98126
G1 X90.522 Y82.083 E70.05775
G1 X90.522 Y82.972 E70.13923
G1 X81.318 Y73.769 E71.33094
G1 X80.428 Y73.769 E71.41241
G1 X90.522 Y83.862 E72.71934
G1 X90.522 Y84.752 E72.80082
G1 X79.538 Y73.769 E74.22297
G1 X78.649 Y73.769 E74.30444
G1 X90.522 Y85.642 E75.84181
G1 X90.522 Y86.532 E75.92329
G1 X77.759 Y73.769 E77.57588
G1 X76.978 Y73.878 E77.64803
G1 X90.522 Y87.422 E79.40166
G1 X90.522 Y88.311 E79.48314
G1 X76.978 Y74.768 E81.23678
G1 X76.978 Y75.658 E81.31825
G1 X90.522 Y89.201 E83.07189
G1 X90.522 Y90.091 E83.15336
G1 X76.978 Y76.548 E84.90700
G1 X76.978 Y77.438 E84.98847
G1 X90.522 Y90.981 E86.74211
G1 X90.522 Y91.871 E86.82358
G1 X76.978 Y78.328 E88.57722
G1 X76.978 Y79.217 E88.65869
G1 X90.522 Y92.761 E90.41233
G1 X90.522 Y93.651 E90.49380
G1 X76.978 Y80.107 E92.24744
G1 X76.978 Y80.997 E92.32891
G1 X90.522 Y94.540 E94.08255
G1 X90.522 Y95.430 E94.16402
G1 X76.978 Y81.887 E95.91766
G1 X76.978 Y82.777 E95.99913
G1 X90.522 Y96.320 E97.75277
G1 X90.522 Y97.210 E97.83424
G1 X76.978 Y83.667 E99.58788
G1 X76.978 Y84.556 E99.66935
G1 X90.522 Y98.100 E101.42299
G1 X90.522 Y98.990 E101.50446
G1 X76.978 Y85.446 E103.25810
G1 X76.978 Y86.336 E103.33957
G1 X90.522 Y99.879 E105.09321
G1 X90.522 Y100.769 E105.17468
G1 X76.978 Y87.226 E106.92832
G1 X76.978 Y88.116 E107.00979
G1 X90.522 Y101.659 E108.76343
G1 X90.522 Y102.549 E108.84490
G1 X76.978 Y89.006 E110.59854
G1 X76.978 Y89.896 E110.68002
G1 X90.522 Y103.439 E112.43365
G1 X90.522 Y104.329 E112.51513
G1 X76.978 Y90.785 E114.26876
G1 X76.978 Y91.675 E114.35024
G1 X90.522 Y105.218 E116.10387
G1 X90.522 Y106.108 E116.18535
G1 X76.978 Y92.565 E117.93898
G1 X76.978 Y93.455 E118.02046
G1 X90.522 Y106.998 E119.77409
G1 X90.522 Y107.888 E119.85557
G1 X76.978 Y94.345 E121.60920
G1 X76.978 Y95.235 E121.69068
G1 X90.522 Y108.778 E123.44432
G1 X90.522 Y109.668 E123.52579
G1 X76.978 Y96.124 E125.27943
G1 X76.978 Y97.014 E125.36090
G1 X90.522 Y110.558 E127.11454
G1 X90.522 Y111.447 E127.19601
G1 X76.978 Y97.904 E128.94965
G1 X76.978 Y98.794 E129.03112
G1 X90.522 Y112.337 E130.78476
G1 X90.522 Y113.227 E130.86623
G1 X76.978 Y99.684 E132.61987
G1 X76.978 Y100.574 E132.70134
G1 X90.522 Y114.117 E134.45498
G1 X90.522 Y115.007 E134.53645
G1 X76.978 Y101.463 E136.29009
G1 X76.978 Y102.353 E136.37156
G1 X90.522 Y115.897 E138.12520
G1 X90.522 Y116.786 E138.20667
G1 X76.978 Y103.243 E139.96031
G1 X76.978 Y104.133 E140.04178
G1 X90.522 Y117.676 E141.79542
G1 X90.522 Y118.566 E141.87689
G1 X76.978 Y105.023 E143.63053
G1 X76.978 Y105.913 E143.71200
G1 X90.522 Y119.456 E145.46564
G1 X90.522 Y120.346 E145.54711
G1 X76.978 Y106.803 E147.30075
G1 X76.978 Y107.692 E147.38222
G1 X90.522 Y121.236 E149.13586
G1 X90.522 Y122.126 E149.21733
G1 X76.978 Y108.582 E150.97097
G1 X76.978 Y109.472 E151.05245
G1 X90.522 Y123.015 E152.80608
G1 X90.522 Y123.905 E152.88756
G1 X76.978 Y110.362 E154.64119
G1 X76.978 Y111.252 E154.72267
G1 X90.522 Y124.795 E156.47630
G1 X90.522 Y125.685 E156.55778
G1 X76.978 Y112.142 E158.31141
G1 X76.978 Y113.031 E158.39289
G1 X90.522 Y126.575 E160.14652
G1 X90.522 Y127.465 E160.22800
G1 X76.978 Y113.921 E161.98163
G1 X76.978 Y114.811 E162.06311
G1 X90.522 Y128.354 E163.81675
G1 X90.522 Y129.244 E163.89822
G1 X76.978 Y115.701 E165.65186
G1 X76.978 Y116.591 E165.73333
G1 X90.522 Y130.134 E167.48697
G1 X90.522 Y131.024 E167.56844
G1 X76.978 Y117.481 E169.32208
G1 X76.978 Y118.370 E169.40355
G1 X90.522 Y131.914 E171.15719
G1 X90.522 Y132.804 E171.23866
G1 X76.978 Y119.260 E172.99230
G1 X76.978 Y120.150 E173.07377
G1 X90.522 Y133.693 E174.82741
G1 X90.522 Y134.583 E174.90888
G1 X76.978 Y121.040 E176.66252
G1 X76.978 Y121.930 E176.74399
G1 X90.522 Y135.473 E178.49763
G1 X90.522 Y136.363 E178.57910
G1 X76.978 Y122.820 E180.33274
G1 X76.978 Y123.710 E180.41421
G1 X90.522 Y137.253 E182.16785
G1 X90.522 Y138.143 E182.24932
G1 X76.978 Y124.599 E184.00296
G1 X76.978 Y125.489 E184.08443
G1 X90.522 Y139.033 E185.83807
G1 X90.522 Y139.922 E185.91954
G1 X76.978 Y126.379 E187.67318
G1 X76.978 Y127.269 E187.75465
G1 X90.522 Y140.812 E189.50829
G1 X90.522 Y141.702 E189.58976
G1 X76.978 Y128.159 E191.34340
G1 X76.978 Y129.049 E191.42487
G1 X90.522 Y142.592 E193.17851
G1 X90.522 Y143.482 E193.25998
G1 X76.978 Y129.938 E195.01362
G1 X76.978 Y130.828 E195.09510
G1 X90.522 Y144.372 E196.84873
G1 X90.522 Y145.261 E196.93021
G1 X76.978 Y131.718 E198.68384
G1 X76.978 Y132.608 E198.76532
G1 X90.522 Y146.151 E200.51895
G1 X90.522 Y147.041 E200.60043
G1 X76.978 Y133.498 E202.35406
G1 X76.978 Y134.388 E202.43554
G1 X90.522 Y147.931 E204.18917
G1 X90.522 Y148.821 E204.27065
G1 X76.978 Y135.278 E206.02428
G1 X76.978 Y136.167 E206.10576
G1 X90.522 Y149.711 E207.85939
G1 X90.522 Y150.600 E207.94087
G1 X76.978 Y137.057 E209.69451
G1 X76.978 Y137.947 E209.77598
G1 X90.522 Y151.490 E211.52962
G1 X90.522 Y152.380 E211.61109
G1 X76.978 Y138.837 E213.36473
G1 X76.978 Y139.727 E213.44620
G1 X90.522 Y153.270 E215.19984
G1 X90.522 Y154.160 E215.28131
G1 X76.978 Y140.617 E217.03495
G1 X76.978 Y141.506 E217.11642
G1 X90.522 Y155.050 E218.87006
G1 X90.522 Y155.940 E218.95153
G1 X76.978 Y142.396 E220.70517
G1 X76.978 Y143.286 E220.78664
G1 X90.522 Y156.829 E222.54028
G1 X90.522 Y157.719 E222.62175
G1 X76.978 Y144.176 E224.37539
G1 X76.978 Y145.066 E224.45686
G1 X90.522 Y158.609 E226.21050
G1 X90.522 Y159.499 E226.29197
G1 X76.978 Y145.956 E228.04561
G1 X76.978 Y146.845 E228.12708
G1 X90.522 Y160.389 E229.88072
G1 X90.522 Y161.279 E229.96219
G1 X76.978 Y147.735 E231.71583
G1 X76.978 Y148.625 E231.79730
G1 X90.522 Y162.168 E233.55094
G1 X90.522 Y163.058 E233.63241
G1 X76.978 Y149.515 E235.38605
G1 X76.978 Y150.405 E235.46752
G1 X90.522 Y163.948 E237.22116
G1 X90.522 Y164.838 E237.30263
G1 X76.978 Y151.295 E239.05627
G1 X76.978 Y152.185 E239.13774
G1 X90.522 Y165.728 E240.89138
G1 X90.522 Y166.618 E240.97286
G1 X76.978 Y153.074 E242.72649
G1 X76.978 Y153.964 E242.80797
G1 X90.522 Y167.508 E244.56160
G1 X90.522 Y168.397 E244.64308
G1 X76.978 Y154.854 E246.39671
G1 X76.978 Y155.744 E246.47819
G1 X89.374 Y168.140 E248.08325
G1 X88.244 Y167.899 E248.18904
G1 X76.978 Y156.634 E249.64776
G1 X76.978 Y157.524 E249.72924
G1 X87.114 Y167.659 E251.04162
G1 X85.984 Y167.419 E251.14741
G1 X76.978 Y158.413 E252.31346
G1 X76.978 Y159.303 E252.39493
G1 X85.083 Y167.408 E253.44438
G1 X84.193 Y167.408 E253.52585
G1 X76.978 Y160.193 E254.46008
G1 X76.978 Y161.083 E254.54155
G1 X83.304 Y167.408 E255.36056
G1 X82.414 Y167.408 E255.44204
G1 X76.978 Y161.973 E256.14582
G1 X76.978 Y162.863 E256.22730
G1 X81.578 Y167.462 E256.82285
G1 X80.844 Y167.618 E256.89154
G1 X76.978 Y163.753 E257.39207
G1 X76.978 Y164.642 E257.47354
G1 X80.110 Y167.774 E257.87906
G1 X79.376 Y167.930 E257.94775
G1 X76.978 Y165.532 E258.25826
G1 X76.978 Y166.422 E258.33973
G1 X78.643 Y168.086 E258.55522
G1 X77.909 Y168.242 E258.62391
G1 X76.978 Y167.312 E258.74438
G1 X76.978 Y168.202 E258.82586
G1 X77.279 Y168.502 E258.86473
G1 E256.86473 F2400.00000
G92 E0
G1 X75.000 Y71.790 F7800.000
G1 X75.000 Y62.791 F7800.000
G1 X77.181 Y62.822 F7800.000
G1 X80.828 Y54.630 F7800.000
G1 X83.400 Y53.541 F7800.000
G1 E2.00000 F2400.00000
G1 X81.325 Y53.100 E2.19288 F1800.000
G1 X79.283 Y52.191 E2.39613
G1 X51.100 Y52.191 E4.95885
G1 X51.100 Y31.390 E6.85023
G1 X79.283 Y31.390 E9.41295
G1 X81.325 Y30.481 E9.61620
G1 X83.400 Y30.040 E9.80908
G1 X83.400 Y34.547 E10.21890
G1 X82.695 Y34.697 E10.28444
G1 X81.271 Y35.331 E10.42623
G1 X80.009 Y36.248 E10.56801
G1 X78.966 Y37.406 E10.70979
G1 X78.186 Y38.757 E10.85158
G1 X77.704 Y40.240 E10.99336
G1 X77.541 Y41.791 E11.13515
G1 X77.704 Y43.341 E11.27693
G1 X78.186 Y44.824 E11.41871
G1 X78.966 Y46.175 E11.56050
G1 X80.009 Y47.333 E11.70228
G1 X81.271 Y48.250 E11.84406
G1 X82.695 Y48.884 E11.98585
G1 X83.400 Y49.034 E12.05139
G1 X83.400 Y53.488 E12.45644
G1 X84.025 Y54.242 F7800.000
G1 X83.691 Y54.242 E12.48678 F1800.000
G1 X81.131 Y53.698 E12.72478
G1 X79.151 Y52.816 E12.92192
G1 X50.475 Y52.816 E15.52939
G1 X50.475 Y30.765 E17.53441
G1 X79.151 Y30.765 E20.14187
G1 X81.131 Y29.883 E20.33902
G1 X83.691 Y29.339 E20.57701
G1 X84.025 Y29.339 E20.60736
G1 X84.025 Y35.053 E21.12691
G1 X82.889 Y35.295 E21.23249
G1 X81.585 Y35.875 E21.36233
G1 X80.430 Y36.715 E21.49216
G1 X79.474 Y37.776 E21.62201
G1 X78.760 Y39.012 E21.75185
G1 X78.319 Y40.370 E21.88169
G1 X78.170 Y41.791 E22.01153
G1 X78.319 Y43.211 E22.14136
G1 X78.760 Y44.569 E22.27120
G1 X79.474 Y45.805 E22.40104
G1 X80.430 Y46.866 E22.53088
G1 X81.585 Y47.706 E22.66072
G1 X82.889 Y48.286 E22.79056
G1 X84.025 Y48.528 E22.89614
G1 X84.025 Y54.189 E23.41092
G1 X84.650 Y54.867 F7800.000
G1 X83.626 Y54.867 E23.50406 F1800.000
G1 X80.937 Y54.295 E23.75400
G1 X79.018 Y53.441 E23.94504
G1 X49.850 Y53.441 E26.59725
G1 X49.850 Y30.140 E28.71591
G1 X79.018 Y30.140 E31.36811
G1 X80.937 Y29.286 E31.55916
G1 X83.626 Y28.715 E31.80909
G1 X84.650 Y28.715 E31.90223
G1 X84.650 Y35.623 E32.53038
G1 X84.352 Y35.623 E32.55750
G1 X83.083 Y35.892 E32.67540
G1 X81.899 Y36.419 E32.79329
G1 X80.850 Y37.182 E32.91118
G1 X79.983 Y38.145 E33.02908
G1 X79.334 Y39.268 E33.14698
G1 X78.934 Y40.501 E33.26487
G1 X78.798 Y41.791 E33.38277
G1 X78.934 Y43.080 E33.50066
G1 X79.334 Y44.313 E33.61856
G1 X79.983 Y45.436 E33.73645
G1 X80.850 Y46.399 E33.85435
G1 X81.899 Y47.162 E33.97224
G1 X83.083 Y47.689 E34.09014
G1 X84.352 Y47.958 E34.20803
G1 X84.650 Y47.958 E34.23516
G1 X84.650 Y54.814 E34.85853
G1 X84.347 Y54.691 F7800.000
G1 X83.022 Y50.314 F7800.000
G1 X81.583 Y48.875 E35.04378 F1800.000
G1 X80.555 Y52.271 F7800.000
G1 X60.053 Y31.769 E37.68336 F1800.000
G1 X60.938 Y31.769 E37.76391
G1 X81.992 Y52.824 E40.47463
G1 X83.022 Y52.968 E40.56924
G1 X61.823 Y31.769 E43.29855
G1 X62.707 Y31.769 E43.37910
G1 X83.022 Y52.083 E45.99450
G1 X83.022 Y51.198 E46.07505
G1 X63.592 Y31.769 E48.57654
G1 X64.477 Y31.769 E48.65709
G1 X77.837 Y45.129 E50.37722
G1 X77.412 Y43.819 E50.50267
G1 X65.362 Y31.769 E52.05406
G1 X66.246 Y31.769 E52.13461
G1 X77.249 Y42.772 E53.55118
G1 X77.172 Y41.810 E53.63905
G1 X67.131 Y31.769 E54.93176
G1 X68.016 Y31.769 E55.01231
G1 X77.256 Y41.009 E56.20194
G1 X77.350 Y40.218 E56.27447
G1 X68.901 Y31.769 E57.36224
G1 X69.786 Y31.769 E57.44279
G1 X77.567 Y39.550 E58.44459
G1 X77.784 Y38.882 E58.50851
G1 X70.670 Y31.769 E59.42434
G1 X71.555 Y31.769 E59.50488
G1 X78.075 Y38.289 E60.34433
G1 X78.399 Y37.728 E60.40330
G1 X72.440 Y31.769 E61.17052
G1 X73.325 Y31.769 E61.25107
G1 X78.735 Y37.179 E61.94761
G1 X79.154 Y36.713 E62.00464
G1 X74.209 Y31.769 E62.64124
G1 X75.094 Y31.769 E62.72179
G1 X79.573 Y36.248 E63.29844
G1 X80.036 Y35.826 E63.35546
G1 X75.979 Y31.769 E63.87775
G1 X76.864 Y31.769 E63.95829
G1 X80.548 Y35.453 E64.43265
G1 X81.061 Y35.081 E64.49031
G1 X77.749 Y31.769 E64.91673
G1 X78.633 Y31.769 E64.99727
G1 X81.656 Y34.792 E65.38645
G1 X82.268 Y34.519 E65.44746
G1 X79.438 Y31.689 E65.81180
G1 X80.051 Y31.417 E65.87281
G1 X82.921 Y34.287 E66.24238
G1 X83.022 Y33.503 E66.31436
G1 X80.663 Y31.144 E66.61805
G1 X81.275 Y30.871 E66.67906
G1 X83.022 Y32.618 E66.90394
G1 X83.022 Y31.733 E66.98448
G1 X81.990 Y30.702 E67.11731
G1 X82.720 Y30.547 E67.18522
G1 X83.022 Y30.849 E67.22410
G1 X71.338 Y38.105 F7800.000
G1 X72.771 Y46.517 F7800.000
G1 X77.784 Y49.253 F7800.000
G1 X79.156 Y49.741 F7800.000
G1 X79.156 Y52.791 F7800.000
G1 X79.212 Y51.812 F7800.000
G1 X59.168 Y31.769 E69.80461 F1800.000
G1 X58.283 Y31.769 E69.88515
G1 X78.327 Y51.812 E72.46566
G1 X77.442 Y51.812 E72.54621
G1 X57.399 Y31.769 E75.12671
G1 X56.514 Y31.769 E75.20726
G1 X76.557 Y51.812 E77.78776
G1 X75.672 Y51.812 E77.86831
G1 X55.629 Y31.769 E80.44882
G1 X54.744 Y31.769 E80.52937
G1 X74.788 Y51.812 E83.10987
G1 X73.903 Y51.812 E83.19042
G1 X53.860 Y31.769 E85.77092
G1 X52.975 Y31.769 E85.85147
G1 X73.018 Y51.812 E88.43198
G1 X72.133 Y51.812 E88.51252
G1 X52.090 Y31.769 E91.09303
G1 X51.478 Y32.042 E91.15401
G1 X71.249 Y51.812 E93.69935
G1 X70.364 Y51.812 E93.77990
G1 X51.478 Y32.927 E96.21133
G1 X51.478 Y33.812 E96.29188
G1 X69.479 Y51.812 E98.60939
G1 X68.594 Y51.812 E98.68994
G1 X51.478 Y34.696 E100.89355
G1 X51.478 Y35.581 E100.97409
G1 X67.709 Y51.812 E103.06379
G1 X66.825 Y51.812 E103.14434
G1 X51.478 Y36.466 E105.12012
G1 X51.478 Y37.351 E105.20066
G1 X65.940 Y51.812 E107.06253
G1 X65.055 Y51.812 E107.14308
G1 X51.478 Y38.235 E108.89104
G1 X51.478 Y39.120 E108.97159
G1 X64.170 Y51.812 E110.60563
G1 X63.286 Y51.812 E110.68618
G1 X51.478 Y40.005 E112.20631
G1 X51.478 Y40.890 E112.28686
G1 X62.401 Y51.812 E113.69308
G1 X61.516 Y51.812 E113.77363
G1 X51.478 Y41.775 E115.06594
G1 X51.478 Y42.659 E115.14649
G1 X60.631 Y51.812 E116.32489
G1 X59.746 Y51.812 E116.40543
G1 X51.478 Y43.544 E117.46992
G1 X51.478 Y44.429 E117.55047
G1 X58.862 Y51.812 E118.50104
G1 X57.977 Y51.812 E118.58159
G1 X51.478 Y45.314 E119.41825
G1 X51.478 Y46.198 E119.49880
G1 X57.092 Y51.812 E120.22155
G1 X56.207 Y51.812 E120.30210
G1 X51.478 Y47.083 E120.91094
G1 X51.478 Y47.968 E120.99148
G1 X55.323 Y51.812 E121.48641
G1 X54.438 Y51.812 E121.56696
G1 X51.478 Y48.853 E121.94797
G1 X51.478 Y49.738 E122.02852
G1 X53.553 Y51.812 E122.29562
G1 X52.668 Y51.812 E122.37617
G1 X51.478 Y50.622 E122.52936
G1 X51.478 Y51.507 E122.60991
G1 X51.783 Y51.812 E122.64919
