; generated by Slic3r 1.2.9 on 2017-01-05 at 17:48:29

; external perimeters extrusion width = 0.35mm
; perimeters extrusion width = 0.39mm
; infill extrusion width = 0.39mm
; solid infill extrusion width = 0.39mm
; top infill extrusion width = 0.39mm

M107
M190 S60 ; set bed temperature
M104 S200 ; set temperature
G28 ; home all axes
G1 Z5 F5000 ; lift nozzle

M109 S200 ; wait for temperature to be reached
G21 ; set units to millimeters
G90 ; use absolute coordinates
M82 ; use absolute distances for extrusion
G92 E0
G1 Z0.350 F7800.000
G1 E-2.00000 F2400.00000
G92 E0
G1 X33.295 Y75.847 F7800.000
G1 E2.00000 F2400.00000
G1 X132.295 Y36.347 E11.69211 F1800.000
G1 X133.844 Y35.937 E11.83776
G1 X148.323 Y33.937 E13.16690
G1 X149.230 Y33.875 E13.24952
G1 X155.750 Y33.875 E13.84240
G1 X158.009 Y34.272 E14.05094
G1 X159.997 Y35.415 E14.25948 F1800.000
G1 X161.356 Y36.970 E14.44726
G1 X169.856 Y50.470 E15.89787
G1 X170.724 Y52.593 E16.10641
G1 X170.875 Y54.000 E16.23507
G1 X170.875 Y144.000 E24.41873
G1 X170.478 Y146.259 E24.62727
G1 X169.335 Y148.247 E24.83581
G1 X167.582 Y149.726 E25.04436
G1 X166.248 Y150.316 E25.17698
G1 X117.248 Y165.816 E29.85014
G1 X115.250 Y166.125 E30.03397
G1 X100.250 Y166.125 E31.39791
G1 X97.991 Y165.728 E31.60646
G1 X96.021 Y164.599 E31.81296
G1 X31.521 Y111.099 E39.43289
G1 X30.035 Y109.351 E39.64143
G1 X29.235 Y107.202 E39.84998
G1 X29.125 Y106.000 E39.95975
G1 X29.125 Y82.000 E42.14206
G1 X29.522 Y79.741 E42.35060
G1 X30.665 Y77.753 E42.55914
G1 X33.252 Y75.878 E42.84968
G1 E40.84968 F2400.00000
G92 E0
G1 X108.200 Y105.676 F7800.000
G1 E2.00000 F2400.00000
G1 X108.200 Y82.324 E4.12339 F1800.000
G1 X109.925 Y82.691 E4.28373
G1 X111.967 Y83.600 E4.48699
G1 X130.150 Y83.600 E6.14041
G1 X130.150 Y104.400 E8.03178
G1 X111.967 Y104.400 E9.68521
G1 X109.925 Y105.309 E9.88846
G1 X108.251 Y105.665 E10.04403
G1 X108.275 Y106.299 F7800.000
G1 X108.275 Y130.475 E12.24235 F1800.000
G1 X114.275 Y130.475 E12.78793
G1 X114.275 Y158.525 E15.33852
G1 X101.225 Y158.525 E16.52518
G1 X101.225 Y157.475 E16.62067
G1 X113.225 Y157.475 E17.71183
G1 X113.225 Y131.525 E20.07143
G1 X101.225 Y131.525 E21.16258
G1 X101.225 Y130.475 E21.25808
G1 X107.225 Y130.475 E21.80366
G1 X107.225 Y106.412 E23.99170
G1 X107.575 Y106.412 E24.02352
G1 X107.575 Y81.552 E26.28399
G1 X110.119 Y82.093 E26.52047
G1 X112.100 Y82.975 E26.71762
G1 X130.775 Y82.975 E28.41579
G1 X130.775 Y105.025 E30.42081
G1 X112.100 Y105.025 E32.11897
G1 X110.119 Y105.907 E32.31612
G1 X108.326 Y106.288 E32.48274
G1 X108.900 Y106.805 F7800.000
G1 X108.900 Y129.850 E34.57822 F1800.000
G1 X114.900 Y129.850 E35.12380
G1 X114.900 Y159.150 E37.78804
G1 X100.600 Y159.150 E39.08833
G1 X100.600 Y156.850 E39.29747
G1 X112.600 Y156.850 E40.38862
G1 X112.600 Y132.150 E42.63458
G1 X100.600 Y132.150 E43.72574
G1 X100.600 Y129.850 E43.93488
G1 X106.600 Y129.850 E44.48045
G1 X106.600 Y105.787 E46.66849
G1 X106.950 Y105.787 E46.70032
G1 X106.950 Y82.213 E48.84389
G1 X106.600 Y82.213 E48.87572
G1 X106.600 Y80.925 E48.99286
G1 X107.638 Y80.927 E49.08723
G1 X110.313 Y81.495 E49.33591
G1 X112.232 Y82.350 E49.52696
G1 X131.400 Y82.350 E51.26986
G1 X131.400 Y105.650 E53.38852
G1 X112.232 Y105.650 E55.13143
G1 X110.313 Y106.505 E55.32248
G1 X108.951 Y106.794 E55.44905
G1 X108.551 Y106.829 F7800.000
G1 X107.750 Y106.724 F7800.000
G1 X107.750 Y130.947 E60.11887 F1800.000
G1 X107.963 Y131.000 E60.16113
G1 X113.537 Y131.000 E61.23586
G1 X113.714 Y131.036 E61.27055
G1 X113.750 Y131.213 E61.30524
G1 X113.750 Y157.787 E66.42852
G1 X113.714 Y157.964 E66.46321
G1 X113.537 Y158.000 E66.49790
G1 X101.537 Y158.000 E68.81136
G1 X113.250 Y158.000 F7800.000
G1 X113.250 Y131.000 F7800.000
G1 X107.750 Y130.875 F7800.000
G1 X107.250 Y131.000 F7800.000
G1 X101.750 Y131.000 F7800.000
G1 X101.537 Y131.000 F7800.000
G1 X107.537 Y131.000 E69.96809 F1800.000
G1 X108.388 Y130.787 E70.13713
G1 X108.880 Y105.170 F7800.000
G1 X108.578 Y104.868 E70.17619 F1800.000
G1 X108.578 Y103.979 E70.25749
G1 X109.613 Y105.014 E70.39137
G1 X110.274 Y104.786 E70.45531
G1 X108.578 Y103.090 E70.67467
G1 X108.578 Y102.201 E70.75597
G1 X110.889 Y104.512 E71.05489
G1 X111.504 Y104.238 E71.11646
G1 X108.578 Y101.312 E71.49493
G1 X108.578 Y100.423 E71.57623
G1 X112.177 Y104.022 E72.04167
G1 X113.066 Y104.022 E72.12296
G1 X108.578 Y99.534 E72.70337
G1 X108.578 Y98.645 E72.78467
G1 X113.955 Y104.022 E73.48005
G1 X114.843 Y104.022 E73.56135
G1 X108.578 Y97.757 E74.37170
G1 X108.578 Y96.868 E74.45300
G1 X115.732 Y104.022 E75.37832
G1 X116.621 Y104.022 E75.45962
G1 X108.578 Y95.979 E76.49992
G1 X108.578 Y95.090 E76.58121
G1 X117.510 Y104.022 E77.73648
G1 X118.399 Y104.022 E77.81778
G1 X108.578 Y94.201 E79.08801
G1 X108.578 Y93.312 E79.16931
G1 X119.288 Y104.022 E80.55452
G1 X120.177 Y104.022 E80.63582
G1 X108.578 Y92.423 E82.13600
G1 X108.578 Y91.534 E82.21729
G1 X121.066 Y104.022 E83.83245
G1 X121.955 Y104.022 E83.91374
G1 X108.578 Y90.645 E85.64387
G1 X108.578 Y89.757 E85.72516
G1 X122.843 Y104.022 E87.57026
G1 X123.732 Y104.022 E87.65155
G1 X108.578 Y88.868 E89.61162
G1 X108.578 Y87.979 E89.69292
G1 X124.621 Y104.022 E91.76795
G1 X125.510 Y104.022 E91.84925
G1 X108.578 Y87.090 E94.03926
G1 X108.578 Y86.201 E94.12056
G1 X126.399 Y104.022 E96.42553
G1 X127.288 Y104.022 E96.50683
G1 X108.578 Y85.312 E98.92678
G1 X108.578 Y84.423 E99.00808
G1 X128.177 Y104.022 E101.54300
G1 X129.066 Y104.022 E101.62430
G1 X108.578 Y83.534 E104.27419
G1 X108.803 Y82.870 E104.33831
G1 X129.772 Y103.839 E107.05045
G1 X129.772 Y102.950 E107.13175
G1 X110.057 Y83.236 E109.68168
G1 X111.660 Y83.949 F7800.000
G1 X129.772 Y102.061 E112.02437 F1800.000
G1 X129.772 Y101.172 E112.10567
G1 X112.578 Y83.978 E114.32958
G1 X113.467 Y83.978 E114.41088
G1 X129.772 Y100.283 E116.51983
G1 X129.772 Y99.394 E116.60112
G1 X114.356 Y83.978 E118.59510
G1 X115.244 Y83.978 E118.67640
G1 X129.772 Y98.506 E120.55540
G1 X129.772 Y97.617 E120.63670
G1 X116.133 Y83.978 E122.40073
G1 X117.022 Y83.978 E122.48203
G1 X129.772 Y96.728 E124.13109
G1 X129.772 Y95.839 E124.21239
G1 X117.911 Y83.978 E125.74648
G1 X118.800 Y83.978 E125.82778
G1 X129.772 Y94.950 E127.24690
G1 X129.772 Y94.061 E127.32819
G1 X119.689 Y83.978 E128.63234
G1 X120.578 Y83.978 E128.71364
G1 X129.772 Y93.172 E129.90282
G1 X129.772 Y92.283 E129.98411
G1 X121.467 Y83.978 E131.05832
G1 X122.355 Y83.978 E131.13962
G1 X129.772 Y91.395 E132.09885
G1 X129.772 Y90.506 E132.18015
G1 X123.244 Y83.978 E133.02441
G1 X124.133 Y83.978 E133.10571
G1 X129.772 Y89.617 E133.83500
G1 X129.772 Y88.728 E133.91630
G1 X125.022 Y83.978 E134.53062
G1 X125.911 Y83.978 E134.61192
G1 X129.772 Y87.839 E135.11127
G1 X129.772 Y86.950 E135.19256
G1 X126.800 Y83.978 E135.57694
G1 X127.689 Y83.978 E135.65824
G1 X129.772 Y86.061 E135.92765
G1 X129.772 Y85.172 E136.00895
G1 X128.578 Y83.978 E136.16338
G1 X129.467 Y83.978 E136.24468
G1 X129.772 Y84.283 E136.28414
G1 E134.28414 F2400.00000
G92 E0
G1 X106.600 Y105.437 F7800.000
G1 X106.250 Y105.087 F7800.000
G1 X86.250 Y105.437 F7800.000
G1 X66.250 Y105.437 F7800.000
G1 X64.300 Y105.676 F7800.000
G1 E2.00000 F2400.00000
G1 X62.575 Y105.309 E2.16034 F1800.000
G1 X60.533 Y104.400 E2.36360
G1 X37.350 Y104.400 E4.47167
G1 X37.350 Y83.600 E6.36304
G1 X60.533 Y83.600 E8.47112
G1 X62.575 Y82.691 E8.67437
G1 X64.300 Y82.324 E8.83471
G1 X64.300 Y105.624 E10.95333
G1 X64.925 Y106.448 F7800.000
G1 X62.381 Y105.907 E11.18981 F1800.000
G1 X60.401 Y105.025 E11.38696
G1 X36.725 Y105.025 E13.53977
G1 X36.725 Y82.975 E15.54479
G1 X60.401 Y82.975 E17.69761
G1 X62.381 Y82.093 E17.89476
G1 X64.925 Y81.552 E18.13124
G1 X64.925 Y106.395 E20.39019
G1 X65.550 Y105.787 F7800.000
G1 X65.900 Y105.787 E20.42201 F1800.000
G1 X65.900 Y107.076 E20.53922
G1 X64.876 Y107.076 E20.63236
G1 X62.187 Y106.505 E20.88230
G1 X60.268 Y105.650 E21.07334
G1 X36.100 Y105.650 E23.27090
G1 X36.100 Y82.350 E25.38956
G1 X60.268 Y82.350 E27.58712
G1 X62.187 Y81.495 E27.77816
G1 X64.876 Y80.924 E28.02810
G1 X65.900 Y80.924 E28.12124
G1 X65.900 Y82.213 E28.23845
G1 X65.550 Y82.213 E28.27027
G1 X65.550 Y105.734 E30.40907
G1 X65.550 Y106.137 F7800.000
G1 X63.358 Y105.058 F7800.000
G1 X42.278 Y83.978 E33.16830 F1800.000
G1 X43.178 Y83.978 E33.25157
G1 X63.922 Y104.722 E35.96688
G1 X63.922 Y103.822 E36.05014
G1 X44.078 Y83.978 E38.64771
G1 X44.977 Y83.978 E38.73097
G1 X63.922 Y102.923 E41.21078
G1 X63.922 Y102.023 E41.29404
G1 X45.877 Y83.978 E43.65610
G1 X46.776 Y83.978 E43.73936
G1 X63.922 Y101.124 E45.98367
G1 X63.922 Y100.224 E46.06693
G1 X47.676 Y83.978 E48.19349
G1 X48.575 Y83.978 E48.27675
G1 X63.922 Y99.325 E50.28555
G1 X63.922 Y98.425 E50.36882
G1 X49.475 Y83.978 E52.25987
G1 X50.375 Y83.978 E52.34313
G1 X63.922 Y97.525 E54.11643
G1 X63.922 Y96.626 E54.19969
G1 X51.274 Y83.978 E55.85524
G1 X52.174 Y83.978 E55.93850
G1 X63.922 Y95.726 E57.47630
G1 X63.922 Y94.827 E57.55956
G1 X53.073 Y83.978 E58.97960
G1 X53.973 Y83.978 E59.06287
G1 X63.922 Y93.927 E60.36516
G1 X63.922 Y93.028 E60.44842
G1 X54.872 Y83.978 E61.63296
G1 X55.772 Y83.978 E61.71622
G1 X63.922 Y92.128 E62.78301
G1 X63.922 Y91.229 E62.86628
G1 X56.671 Y83.978 E63.81531
G1 X57.571 Y83.978 E63.89857
G1 X63.922 Y90.329 E64.72986
G1 X63.922 Y89.429 E64.81312
G1 X58.471 Y83.978 E65.52665
G1 X59.370 Y83.978 E65.60992
G1 X63.922 Y88.530 E66.20570
G1 X63.922 Y87.630 E66.28896
G1 X60.270 Y83.978 E66.76699
G1 X60.966 Y83.775 E66.83413
G1 X63.922 Y86.731 E67.22101
G1 X63.922 Y85.831 E67.30428
G1 X61.588 Y83.498 E67.60969
G1 X62.211 Y83.221 E67.67275
G1 X63.922 Y84.932 E67.89669
G1 X63.922 Y84.032 E67.97995
G1 X62.878 Y82.988 E68.11659
G1 X63.620 Y82.830 E68.18680
G1 X63.922 Y83.132 E68.22633
G1 X61.942 Y104.541 F7800.000
G1 X41.379 Y83.978 E70.91800 F1800.000
G1 X40.479 Y83.978 E71.00126
G1 X60.523 Y104.022 E73.62490
G1 X59.623 Y104.022 E73.70817
G1 X39.580 Y83.978 E76.33180
G1 X38.680 Y83.978 E76.41507
G1 X58.723 Y104.022 E79.03870
G1 X57.824 Y104.022 E79.12197
G1 X37.781 Y83.978 E81.74561
G1 X37.728 Y84.826 E81.82418
G1 X56.924 Y104.022 E84.33691
G1 X56.025 Y104.022 E84.42017
G1 X37.728 Y85.725 E86.81514
G1 X37.728 Y86.625 E86.89841
G1 X55.125 Y104.022 E89.17563
G1 X54.226 Y104.022 E89.25889
G1 X37.728 Y87.524 E91.41836
G1 X37.728 Y88.424 E91.50162
G1 X53.326 Y104.022 E93.54334
G1 X52.426 Y104.022 E93.62660
G1 X37.728 Y89.324 E95.55057
G1 X37.728 Y90.223 E95.63383
G1 X51.527 Y104.022 E97.44004
G1 X50.627 Y104.022 E97.52331
G1 X37.728 Y91.123 E99.21177
G1 X37.728 Y92.022 E99.29503
G1 X49.728 Y104.022 E100.86574
G1 X48.828 Y104.022 E100.94901
G1 X37.728 Y92.922 E102.40196
G1 X37.728 Y93.821 E102.48523
G1 X47.929 Y104.022 E103.82043
G1 X47.029 Y104.022 E103.90370
G1 X37.728 Y94.721 E105.12115
G1 X37.728 Y95.620 E105.20441
G1 X46.130 Y104.022 E106.30412
G1 X45.230 Y104.022 E106.38738
G1 X37.728 Y96.520 E107.36933
G1 X37.728 Y97.420 E107.45259
G1 X44.330 Y104.022 E108.31679
G1 X43.431 Y104.022 E108.40005
G1 X37.728 Y98.319 E109.14650
G1 X37.728 Y99.219 E109.22976
G1 X42.531 Y104.022 E109.85846
G1 X41.632 Y104.022 E109.94172
G1 X37.728 Y100.118 E110.45267
G1 X37.728 Y101.018 E110.53593
G1 X40.732 Y104.022 E110.92912
G1 X39.833 Y104.022 E111.01238
G1 X37.728 Y101.917 E111.28782
G1 X37.728 Y102.817 E111.37109
G1 X38.933 Y104.022 E111.52877
G1 X38.033 Y104.022 E111.61204
G1 X37.728 Y103.717 E111.65197
G1 E109.65197 F2400.00000
G92 E0
G1 X66.250 Y80.574 F7800.000
G1 X112.081 Y59.769 F7800.000
G1 X116.405 Y60.250 F7800.000
G1 X127.750 Y45.500 F7800.000
G1 X134.750 Y45.500 F7800.000
G1 X135.725 Y44.525 F7800.000
G1 E2.00000 F2400.00000
G1 X135.725 Y43.475 E2.09550 F1800.000
G1 X136.775 Y43.475 E2.19099
G1 X136.775 Y44.525 E2.28649
G1 X135.777 Y44.525 E2.37721
G1 X135.100 Y45.150 F7800.000
G1 X135.100 Y42.850 E2.58635 F1800.000
G1 X137.400 Y42.850 E2.79549
G1 X137.400 Y45.150 E3.00463
G1 X135.153 Y45.150 E3.20899
G1 X135.275 Y44.847 F7800.000
G1 E1.20899 F2400.00000
G92 E0
G1 X137.750 Y45.500 F7800.000
G1 X143.655 Y45.500 F7800.000
G1 X143.632 Y45.682 F7800.000
G1 X149.230 Y47.500 F7800.000
G1 X151.159 Y45.900 F7800.000
G1 E2.00000 F2400.00000
G1 X151.359 Y44.000 E2.17374 F1800.000
G1 X151.159 Y42.100 E2.34748
G1 X154.150 Y42.100 E2.61948
G1 X154.150 Y45.900 E2.96505
G1 X151.211 Y45.900 E3.23228
G1 X150.465 Y46.525 F7800.000
G1 X150.730 Y44.000 E3.46315 F1800.000
G1 X150.465 Y41.475 E3.69402
G1 X154.775 Y41.475 E4.08595
G1 X154.775 Y46.525 E4.54517
G1 X150.517 Y46.525 E4.93232
G1 X149.712 Y47.150 F7800.000
G1 X149.799 Y46.880 E4.95814 F1800.000
G1 X150.102 Y44.000 E5.22146
G1 X149.799 Y41.120 E5.48477
G1 X149.712 Y40.850 E5.51059
G1 X155.400 Y40.850 E6.02784
G1 X155.400 Y47.150 E6.60070
G1 X149.764 Y47.150 E7.11318
G1 X149.901 Y46.939 F7800.000
G1 X151.901 Y45.522 F7800.000
G1 X151.598 Y45.218 E7.15386 F1800.000
G1 X151.686 Y44.384 E7.23339
G1 X152.823 Y45.522 E7.38593
G1 X153.738 Y45.515 E7.47273
G1 X151.699 Y43.476 E7.74625
G1 X151.630 Y42.485 E7.84044
G1 X153.772 Y44.627 E8.12773
G1 X153.772 Y43.705 E8.21514
G1 X152.545 Y42.478 E8.37968
G1 X153.467 Y42.478 E8.46709
G1 X153.772 Y42.783 E8.50801
G1 E6.50801 F2400.00000
G92 E0
G1 X155.750 Y47.500 F7800.000
G1 X155.750 Y50.769 F7800.000
G1 X156.250 Y50.731 F7800.000
G1 X156.250 Y54.000 F7800.000
G1 X159.088 Y56.656 F7800.000
G1 E2.00000 F2400.00000
G1 X162.594 Y57.838 E2.33645 F1800.000
G1 X161.412 Y61.344 E2.67289
G1 X157.906 Y60.162 E3.00934
G1 X159.071 Y56.706 E3.34101
G1 X159.200 Y56.324 F7800.000
G1 E1.34101 F2400.00000
G92 E0
G1 X161.820 Y62.168 F7800.000
G1 X161.820 Y62.168 F7800.000
G1 X162.516 Y62.402 F7800.000
G1 X162.197 Y62.928 F7800.000
G1 E2.00000 F2400.00000
G1 X162.336 Y62.516 E2.03949 F1800.000
G1 X162.650 Y62.568 E2.06845
G1 X162.650 Y142.400 E9.32759
G1 X157.850 Y142.400 E9.76410
G1 X157.850 Y61.462 E17.12377
G1 X162.147 Y62.911 E17.53616
G1 X161.805 Y62.136 F7800.000
G1 X162.961 Y58.706 E17.86528 F1800.000
G1 X163.275 Y58.758 E17.89423
G1 X163.275 Y143.025 E25.55665
G1 X157.225 Y143.025 E26.10679
G1 X157.225 Y60.592 E33.60240
G1 X161.755 Y62.119 E34.03709
G1 X162.650 Y56.538 F7800.000
G1 X160.799 Y55.914 E34.21468 F1800.000
G1 X160.851 Y55.600 E34.24364
G1 X162.650 Y55.600 E34.40724
G1 X162.650 Y56.485 E34.48777
G1 X158.695 Y55.864 F7800.000
G1 X157.539 Y59.294 E34.81688 F1800.000
G1 X157.225 Y59.242 E34.84584
G1 X157.225 Y54.975 E35.23389
G1 X163.275 Y54.975 E35.78403
G1 X163.275 Y57.408 E36.00527
G1 X158.745 Y55.881 E36.43996
G1 X156.600 Y54.350 F7800.000
G1 X163.900 Y54.350 E37.10375 F1800.000
G1 X163.900 Y143.650 E45.22376
G1 X156.600 Y143.650 E45.88754
G1 X156.600 Y54.402 E54.00278
G1 X156.903 Y54.525 F7800.000
G1 X158.035 Y55.287 F7800.000
G1 X157.713 Y57.248 E54.38584 F1800.000
G1 X157.713 Y57.248 F7800.000
G1 X157.555 Y58.214 E54.47483 F1800.000
G1 X156.912 Y59.826 F7800.000
G1 X157.629 Y60.004 E54.54202 F1800.000
G1 X158.272 Y55.307 F7800.000
G1 X158.735 Y55.344 E54.58427 F1800.000
G1 X158.871 Y55.436 E54.59920
G1 X159.035 Y55.463 E54.61435
G1 X159.035 Y55.463 F7800.000
G1 X160.517 Y55.706 E54.90379 F1800.000
G1 X162.871 Y57.996 F7800.000
G1 X163.588 Y58.174 E54.97098 F1800.000
G1 X162.945 Y59.786 F7800.000
G1 X162.787 Y60.752 E55.05998 F1800.000
G1 X162.787 Y60.752 F7800.000
G1 X162.544 Y62.233 E55.34941 F1800.000
G1 X162.272 Y63.614 F7800.000
G1 X161.955 Y63.297 E55.39060 F1800.000
G1 X162.272 Y64.507 E55.50550
G1 X160.608 Y62.843 E55.72168
G1 X159.261 Y62.389 F7800.000
G1 X162.272 Y65.400 E56.11286 F1800.000
G1 X162.272 Y66.293 E56.19489
G1 X158.228 Y62.250 E56.72022
G1 X158.228 Y63.143 E56.80225
G1 X162.272 Y67.186 E57.32758
G1 X162.272 Y68.079 E57.40962
G1 X158.228 Y64.035 E57.93495
G1 X158.228 Y64.928 E58.01698
G1 X162.272 Y68.972 E58.54231
G1 X162.272 Y69.864 E58.62434
G1 X158.228 Y65.821 E59.14967
G1 X158.228 Y66.714 E59.23170
G1 X162.272 Y70.757 E59.75704
G1 X162.272 Y71.650 E59.83907
G1 X158.228 Y67.607 E60.36440
G1 X158.228 Y68.500 E60.44643
G1 X162.272 Y72.543 E60.97176
G1 X162.272 Y73.436 E61.05379
G1 X158.228 Y69.393 E61.57912
G1 X158.228 Y70.286 E61.66116
G1 X162.272 Y74.329 E62.18649
G1 X162.272 Y75.222 E62.26852
G1 X158.228 Y71.179 E62.79385
G1 X158.228 Y72.071 E62.87588
